X:235
T:Old Tipperary  
B:CRE2.023 (Sean Tiobraid ÃÂÃÂÃÂÃÂrann)
F:file ID: cre.2/235old_tipp
Q:160
L:1/8
M:6/8
R:jig
K:G
d|cAF GGG|AGF DFA|cAF GGG|Ace fed|
cAF GGG|AGF Dde|1 fed edc|Add cA:|\
[2 f2d e2c|A2d cAF||
|:GBd ggg|agf g2f|def ggg|fag fga|
bag agf|geg fed|cAB cde|fed cAF:|

%%%

